X:150
T:Irving Steeple
B:Jerry Holland's Collection of Fiddle Tunes
Z:Nigel Gatherer
M:4/4
L:1/8
K:D
c|d2 AG FGA=c|BG=cG ECGE|AddA FGAg|fdec dDD:|]A|defg abaf|
ge=cg ecge|1defg abag|fdec dDD:|]2fdge afbg|fdec dDD|]